justvector/icq.svg

<?xml version="1.0" encoding="iso-8859-1"?>
<!-- Generator: Adobe Illustrator 15.0.0, SVG Export Plug-In . SVG Version: 6.00 Build 0)  -->
<!DOCTYPE svg PUBLIC "-//W3C//DTD SVG 1.1//EN" "http://www.w3.org/Graphics/SVG/1.1/DTD/svg11.dtd">
<svg version="1.1" id="Icons" xmlns="http://www.w3.org/2000/svg" xmlns:xlink="http://www.w3.org/1999/xlink" x="0px" y="0px"
	 width="100px" height="100px" viewBox="0 0 100 100" style="enable-background:new 0 0 100 100;" xml:space="preserve">
<path id="ICQ" style="fill-rule:evenodd;clip-rule:evenodd;" d="M93.239,54.572l-0.648-1.018c-1.035-1.522-2.065-3.043-3.62-4.059
	c-1.293-0.89-2.846-1.522-4.264-2.158c4.006-1.904,6.747-4.567,8.042-7.993C93.654,36.55,92,34.27,92,31.986v-0.253
	c0-2.542-3.515-4.189-6.747-5.078c-1.945-0.38-4.089-0.38-6.027-0.257l-4.247,0.89l1.44-3.17c1.29-4.063,0.912-7.994-1.286-11.677
	l-0.386-0.63c-1.941-3.176-4.784-5.078-8.665-6.092c-4.006-1.017-7.417-0.637-11.037,1.267C51.419,8.893,48,11.812,48,15.614v0.253
	l-0.457,0.89l-0.682-0.89l-1.377-2.28c-2.07-3.174-4.695-5.078-7.93-5.968c-2.846-0.633-5.188-0.379-7.646,0.89
	c-2.712,1.647-4.278,4.192-4.926,7.741c-0.648,3.68-0.002,7.235,1.938,10.784l0.899,1.273l-3.102-1.02
	c-3.881-0.89-7.5-0.38-11.119,1.523c-3.753,1.902-6.079,4.569-7.633,8.248c-1.422,3.553-1.29,6.975,0.519,10.151
	c0.777,1.396,1.94,2.538,2.972,3.301c1.554,1.521,3.494,2.41,5.821,2.79l0.902,0.253l-1.936,1.654
	c-1.813,1.525-2.844,3.426-3.491,5.328c-0.645,2.283-0.387,4.568,0.905,6.729c0.648,1.013,1.293,1.894,2.328,2.537
	c1.035,0.882,2.327,1.519,3.877,1.648c2.846,0.637,5.821,0.637,9.05-0.383l-2.33,3.809l-0.641,1.649
	c-1.295,4.054-0.91,7.609,1.031,11.288c0.906,1.403,1.94,2.669,2.975,3.81c1.551,1.396,3.487,2.285,5.819,2.922
	c3.872,1.011,7.753,0.88,11.507-1.02c3.62-1.902,5.943-4.952,7.11-8.754l0.125-0.758c2.459,2.659,4.786,4.437,7.375,5.073
	c2.584,0.759,5.169,0.636,7.497-0.89c2.198-1.271,3.749-3.426,4.524-6.093c0.645-2.79,0.645-5.579,0-8.745
	c1.29,0.881,2.586,1.517,4.135,1.894c4.135,1.272,7.759,1.141,11.378-0.76c3.491-1.9,5.819-4.952,6.981-8.883
	C95.437,61.801,95.179,58.123,93.239,54.572z M74.492,33.381l1.549-0.637c2.332-1.011,4.526-1.268,6.858-1.011
	c2.19,0.253,3.749,1.264,4.521,2.79l0.516,1.646l-0.258,1.272c-0.903,2.284-2.846,4.06-6.075,5.455
	c-1.293,0.631-2.713,0.888-4.264,1.137l-15.904,1.909l-0.262-0.89l-0.258-0.383l0.52-0.637L74.492,33.381z M52.509,17.392
	c0.646-2.537,2.459-4.44,4.786-5.71c2.328-1.269,4.913-1.525,7.368-0.636c2.719,0.636,4.655,2.031,5.823,4.188
	c0.645,1.27,1.03,2.793,1.03,4.442l-0.385,2.789c-0.516,1.396-1.164,2.667-1.938,3.81L57.556,40.232
	c-1.162-0.888-2.455-1.524-3.752-2.157l-1.295-14.337l-0.125-5.078L52.509,17.392z M30.408,17.771
	c0.124-2.283,1.026-3.806,2.581-4.693c0.777-0.636,1.94-0.636,2.972-0.126c2.33,0.636,4.271,2.283,5.817,5.456
	c0.648,1.27,1.293,2.538,1.555,4.059l2.584,14.977l-1.936,0.633L32.47,25.766l-0.645-1.268
	C30.79,22.213,30.146,20.056,30.408,17.771z M11.398,44.671c-1.033-1.9-1.033-3.802-0.256-5.706
	c0.904-2.415,2.584-4.315,5.036-5.331c2.332-1.27,4.655-1.647,7.243-1.017l3.491,1.396l11.378,8.121
	c-1.034,1.272-1.682,2.536-2.072,3.809l-18.618,2.283l-1.29-0.253C13.984,47.591,12.43,46.58,11.398,44.671z M48,82.105
	l-0.457,1.272c-0.906,2.283-2.622,4.186-4.948,5.196c-2.329,1.272-4.873,1.525-7.194,0.896c-2.593-0.637-4.57-2.16-5.605-4.192
	c-0.643-1.264-1.177-2.79-1.177-4.315l0.627-2.913c0.262-1.272,0.908-2.543,1.941-3.556l10.856-12.693
	c1.293,0.637,2.912,1.272,4.337,1.402C46.635,67.512,48,72.088,48,77.03V82.105z M43.071,56.734
	c-1.68-1.525-2.581-3.686-2.581-5.969c0-2.285,0.901-4.186,2.581-5.965c1.554-1.394,3.623-2.283,6.079-2.283
	c2.328,0,4.526,0.89,5.952,2.283c1.803,1.779,2.584,3.68,2.584,5.965c0,2.283-0.781,4.443-2.584,5.969
	c-1.684,1.649-3.624,2.53-5.952,2.53C46.694,59.265,44.625,58.384,43.071,56.734z M66.995,78.933
	c-0.258,2.29-1.035,3.939-2.59,4.575c-0.901,0.628-1.936,0.628-2.971,0.507c-2.456-0.637-4.397-2.538-5.817-5.588l-1.555-4.186
	l-1.936-11.038l2.194-0.766l1.684-0.881l5.431,5.449l3.362,4.063l0.645,1.266C66.604,74.494,67.253,76.526,66.995,78.933z
	 M89.232,64.086c-0.648,2.544-2.199,4.445-4.4,5.456c-2.323,1.272-4.655,1.526-7.236,0.637c-1.555-0.376-2.588-1.02-3.491-2.03
	L60.528,57.111l0.906-1.902l0.39-1.527l14.608-1.27l5.17-0.123l1.297,0.123c1.933,0.637,3.749,1.779,4.778,3.68
	c1.293,1.402,1.941,3.303,1.941,5.465L89.232,64.086z"/>
</svg>

<?xml version="1.0" encoding="UTF-8" standalone="no"?>
<!DOCTYPE svg PUBLIC "-//W3C//DTD SVG 1.1//EN" "http://www.w3.org/Graphics/SVG/1.1/DTD/svg11.dtd">
<svg width="100%" height="100%" viewBox="0 0 100 100" version="1.1" xmlns="http://www.w3.org/2000/svg" xmlns:xlink="http://www.w3.org/1999/xlink" xml:space="preserve" xmlns:serif="http://www.serif.com/" style="fill-rule:evenodd;clip-rule:evenodd;stroke-linejoin:round;stroke-miterlimit:2;">
    <path id="ICQ" d="M93.239,54.572L92.591,53.554C91.556,52.032 90.526,50.511 88.971,49.495C87.678,48.605 86.125,47.973 84.707,47.337C88.713,45.433 91.454,42.77 92.749,39.344C93.654,36.55 92,34.27 92,31.986L92,31.733C92,29.191 88.485,27.544 85.253,26.655C83.308,26.275 81.164,26.275 79.226,26.398L74.979,27.288L76.419,24.118C77.709,20.055 77.331,16.124 75.133,12.441L74.747,11.811C72.806,8.635 69.963,6.733 66.082,5.719C62.076,4.702 58.665,5.082 55.045,6.986C51.419,8.893 48,11.812 48,15.614L48,15.867L47.543,16.757L46.861,15.867L45.484,13.587C43.414,10.413 40.789,8.509 37.554,7.619C34.708,6.986 32.366,7.24 29.908,8.509C27.196,10.156 25.63,12.701 24.982,16.25C24.334,19.93 24.98,23.485 26.92,27.034L27.819,28.307L24.717,27.287C20.836,26.397 17.217,26.907 13.598,28.81C9.845,30.712 7.519,33.379 5.965,37.058C4.543,40.611 23.031,84.133 24.972,87.812C25.878,89.215 26.912,90.481 27.947,91.622C29.498,93.018 31.434,93.907 33.766,94.544C37.638,95.555 41.519,95.424 45.273,93.524C48.893,91.622 51.216,88.572 52.383,84.77L52.508,84.012C54.967,86.671 57.294,88.449 59.883,89.085C62.467,89.844 65.052,89.721 67.38,88.195C69.578,86.924 71.129,84.769 71.904,82.102C72.549,79.312 72.549,76.523 71.904,73.357C73.194,74.238 74.49,74.874 76.039,75.251C80.174,76.523 83.798,76.392 87.417,74.491C90.908,72.591 93.236,69.539 94.398,65.608C95.437,61.801 95.179,58.123 93.239,54.572ZM74.492,33.381L76.041,32.744C78.373,31.733 80.567,31.476 82.899,31.733C85.089,31.986 86.648,32.997 87.42,34.523L87.936,36.169L87.678,37.441C86.775,39.725 84.832,41.501 81.603,42.896C80.31,43.527 78.89,43.784 77.339,44.033L61.435,45.942L61.173,45.052L60.915,44.669L61.435,44.032L74.492,33.381ZM52.509,17.392C53.155,14.855 54.968,12.952 57.295,11.682C59.623,10.413 62.208,10.157 64.663,11.046C67.382,11.682 69.318,13.077 70.486,15.234C71.131,16.504 71.516,18.027 71.516,19.676L71.131,22.465C70.615,23.861 69.967,25.132 69.193,26.275L57.556,40.232C56.394,39.344 55.101,38.708 53.804,38.075L52.509,23.738L52.384,18.66L52.509,17.392ZM30.408,17.771C30.532,15.488 31.434,13.965 32.989,13.078C33.766,12.442 34.929,12.442 35.961,12.952C38.291,13.588 40.232,15.235 41.778,18.408C42.426,19.678 43.071,20.946 43.333,22.467L45.917,37.444L43.981,38.077L32.47,25.766L31.825,24.498C30.79,22.213 30.146,20.056 30.408,17.771ZM11.398,44.671C10.365,42.771 10.365,40.869 11.142,38.965C12.046,36.55 13.726,34.65 16.178,33.634C18.51,32.364 20.833,31.987 23.421,32.617L26.912,34.013L38.29,42.134C37.256,43.406 36.608,44.67 36.218,45.943C36.218,45.943 12.43,46.58 11.398,44.671ZM48,82.105L47.543,83.377C46.637,85.66 44.921,87.563 42.595,88.573C40.266,89.845 37.722,90.098 35.401,89.469C32.808,88.832 30.831,87.309 29.796,85.277C29.153,84.013 28.619,82.487 28.619,80.962L29.246,78.049C29.508,76.777 30.154,75.506 31.187,74.493L42.043,61.8C43.336,62.437 44.955,63.072 46.38,63.202C46.635,67.512 48,72.088 48,77.03L48,82.105ZM43.071,56.734C41.391,55.209 40.49,53.048 40.49,50.765C40.49,48.48 41.391,46.579 43.071,44.8C44.625,43.406 46.694,42.517 49.15,42.517C51.478,42.517 53.676,43.407 55.102,44.8C56.905,46.579 57.686,48.48 57.686,50.765C57.686,53.048 56.905,55.208 55.102,56.734C53.418,58.383 51.478,59.264 49.15,59.264C46.694,59.265 44.625,58.384 43.071,56.734ZM66.995,78.933C66.737,81.223 65.96,82.872 64.405,83.508C63.504,84.136 62.469,84.136 61.434,84.015C58.978,83.378 57.037,81.477 55.617,78.427L54.062,74.241L52.126,63.203L54.32,62.437L56.004,61.556L61.435,67.005L64.797,71.068L65.442,72.334C66.604,74.494 67.253,76.526 66.995,78.933ZM89.232,64.086C88.584,66.63 87.033,68.531 84.832,69.542C82.509,70.814 80.177,71.068 77.596,70.179C76.041,69.803 75.008,69.159 74.105,68.149L60.528,57.111L61.434,55.209L61.824,53.682L76.432,52.412L81.602,52.289L82.899,52.412C84.832,53.049 86.648,54.191 87.677,56.092C88.97,57.494 89.618,59.395 89.618,61.557L89.232,64.086Z"/>
</svg>
